X: 7007
T: Chicken, The
R: reel
M: 4/4
K: Dmajor
|:A,DFB A2FB|A2FD EDB,D|A,DFB A2FB|1 AFEF D2C,B,:|2 AFEF||
|:FA (3A^AA BA (3A^AA|FAAd B2AG|FA (3A^AA BAdB|1 AFDF E2DE:|2 AFDF E2De||
|:fd (3dcd BdAd|fded B2Ad|fded BcdB|1 AFDF E2de:|2 AFDF E2 (3DFA||
|:B3^B BA (3FGA|B3^B BAFA|B3^B BcdB|1 AFDF E2 (3DFA:|2 AFDF e2de||
|:faag fede|fded B2Ad|faag fedB|1 AFDF E2de:|2 AFDF E2D2||
|:g/ 3z f3e|dfed (3Bcd ef|g/ 3z fedB|1 AFDF E2 (3DFA:|2 AFDF E2D2||

